images/shape.svg

<svg fill="none" height="196" viewBox="0 0 196 196" width="196" xmlns="http://www.w3.org/2000/svg"><g opacity=".8"><path d="m8.5217 4.26087c0 2.35321-1.90765 4.26087-4.26085 4.26087s-4.26085-1.90766-4.26085-4.26087 1.90765-4.26087 4.26085-4.26087 4.26085 1.90766 4.26085 4.26087z" fill="#e84e57"/><path d="m8.5217 4.26087c0 2.35321-1.90765 4.26087-4.26085 4.26087s-4.26085-1.90766-4.26085-4.26087 1.90765-4.26087 4.26085-4.26087 4.26085 1.90766 4.26085 4.26087z" fill="#ffbf1a"/><path d="m71.0148 4.26087c0 2.35321-1.9077 4.26087-4.2609 4.26087s-4.2608-1.90766-4.2608-4.26087 1.9076-4.26087 4.2608-4.26087 4.2609 1.90766 4.2609 4.26087z" fill="#e84e57"/><path d="m71.0148 4.26087c0 2.35321-1.9077 4.26087-4.2609 4.26087s-4.2608-1.90766-4.2608-4.26087 1.9076-4.26087 4.2608-4.26087 4.2609 1.90766 4.2609 4.26087z" fill="#ffbf1a"/><path d="m133.507 4.26087c0 2.35321-1.908 4.26087-4.261 4.26087s-4.261-1.90766-4.261-4.26087 1.908-4.26087 4.261-4.26087 4.261 1.90766 4.261 4.26087z" fill="#e84e57"/><path d="m133.507 4.26087c0 2.35321-1.908 4.26087-4.261 4.26087s-4.261-1.90766-4.261-4.26087 1.908-4.26087 4.261-4.26087 4.261 1.90766 4.261 4.26087z" fill="#ffbf1a"/><path d="m196 4.26087c0 2.35321-1.908 4.26087-4.261 4.26087s-4.261-1.90766-4.261-4.26087 1.908-4.26087 4.261-4.26087 4.261 1.90766 4.261 4.26087z" fill="#e84e57"/><path d="m196 4.26087c0 2.35321-1.908 4.26087-4.261 4.26087s-4.261-1.90766-4.261-4.26087 1.908-4.26087 4.261-4.26087 4.261 1.90766 4.261 4.26087z" fill="#ffbf1a"/><path d="m8.5217 66.7536c0 2.3532-1.90765 4.2609-4.26085 4.2609s-4.26085-1.9077-4.26085-4.2609 1.90765-4.2609 4.26085-4.2609 4.26085 1.9077 4.26085 4.2609z" fill="#e84e57"/><path d="m8.5217 66.7536c0 2.3532-1.90765 4.2609-4.26085 4.2609s-4.26085-1.9077-4.26085-4.2609 1.90765-4.2609 4.26085-4.2609 4.26085 1.9077 4.26085 4.2609z" fill="#ffbf1a"/><path d="m71.0148 66.7536c0 2.3532-1.9077 4.2609-4.2609 4.2609s-4.2608-1.9077-4.2608-4.2609 1.9076-4.2609 4.2608-4.2609 4.2609 1.9077 4.2609 4.2609z" fill="#e84e57"/><path d="m71.0148 66.7536c0 2.3532-1.9077 4.2609-4.2609 4.2609s-4.2608-1.9077-4.2608-4.2609 1.9076-4.2609 4.2608-4.2609 4.2609 1.9077 4.2609 4.2609z" fill="#ffbf1a"/><path d="m133.507 66.7536c0 2.3532-1.908 4.2609-4.261 4.2609s-4.261-1.9077-4.261-4.2609 1.908-4.2609 4.261-4.2609 4.261 1.9077 4.261 4.2609z" fill="#e84e57"/><path d="m133.507 66.7536c0 2.3532-1.908 4.2609-4.261 4.2609s-4.261-1.9077-4.261-4.2609 1.908-4.2609 4.261-4.2609 4.261 1.9077 4.261 4.2609z" fill="#ffbf1a"/><path d="m196 66.7536c0 2.3532-1.908 4.2609-4.261 4.2609s-4.261-1.9077-4.261-4.2609 1.908-4.2609 4.261-4.2609 4.261 1.9077 4.261 4.2609z" fill="#e84e57"/><path d="m196 66.7536c0 2.3532-1.908 4.2609-4.261 4.2609s-4.261-1.9077-4.261-4.2609 1.908-4.2609 4.261-4.2609 4.261 1.9077 4.261 4.2609z" fill="#ffbf1a"/><path d="m8.5217 129.246c0 2.354-1.90765 4.261-4.26085 4.261s-4.26085-1.907-4.26085-4.261c0-2.353 1.90765-4.26 4.26085-4.26s4.26085 1.907 4.26085 4.26z" fill="#e84e57"/><path d="m8.5217 129.246c0 2.354-1.90765 4.261-4.26085 4.261s-4.26085-1.907-4.26085-4.261c0-2.353 1.90765-4.26 4.26085-4.26s4.26085 1.907 4.26085 4.26z" fill="#ffbf1a"/><path d="m71.0148 129.246c0 2.354-1.9077 4.261-4.2609 4.261s-4.2608-1.907-4.2608-4.261c0-2.353 1.9076-4.26 4.2608-4.26s4.2609 1.907 4.2609 4.26z" fill="#e84e57"/><path d="m71.0148 129.246c0 2.354-1.9077 4.261-4.2609 4.261s-4.2608-1.907-4.2608-4.261c0-2.353 1.9076-4.26 4.2608-4.26s4.2609 1.907 4.2609 4.26z" fill="#ffbf1a"/><path d="m133.507 129.246c0 2.354-1.908 4.261-4.261 4.261s-4.261-1.907-4.261-4.261c0-2.353 1.908-4.26 4.261-4.26s4.261 1.907 4.261 4.26z" fill="#e84e57"/><path d="m133.507 129.246c0 2.354-1.908 4.261-4.261 4.261s-4.261-1.907-4.261-4.261c0-2.353 1.908-4.26 4.261-4.26s4.261 1.907 4.261 4.26z" fill="#ffbf1a"/><path d="m196 129.246c0 2.354-1.908 4.261-4.261 4.261s-4.261-1.907-4.261-4.261c0-2.353 1.908-4.26 4.261-4.26s4.261 1.907 4.261 4.26z" fill="#e84e57"/><path d="m196 129.246c0 2.354-1.908 4.261-4.261 4.261s-4.261-1.907-4.261-4.261c0-2.353 1.908-4.26 4.261-4.26s4.261 1.907 4.261 4.26z" fill="#ffbf1a"/><path d="m8.5217 191.739c0 2.353-1.90765 4.261-4.26085 4.261s-4.26085-1.908-4.26085-4.261 1.90765-4.261 4.26085-4.261 4.26085 1.908 4.26085 4.261z" fill="#e84e57"/><path d="m8.5217 191.739c0 2.353-1.90765 4.261-4.26085 4.261s-4.26085-1.908-4.26085-4.261 1.90765-4.261 4.26085-4.261 4.26085 1.908 4.26085 4.261z" fill="#ffbf1a"/><path d="m71.0148 191.739c0 2.353-1.9077 4.261-4.2609 4.261s-4.2608-1.908-4.2608-4.261 1.9076-4.261 4.2608-4.261 4.2609 1.908 4.2609 4.261z" fill="#e84e57"/><path d="m71.0148 191.739c0 2.353-1.9077 4.261-4.2609 4.261s-4.2608-1.908-4.2608-4.261 1.9076-4.261 4.2608-4.261 4.2609 1.908 4.2609 4.261z" fill="#ffbf1a"/><path d="m133.507 191.739c0 2.353-1.908 4.261-4.261 4.261s-4.261-1.908-4.261-4.261 1.908-4.261 4.261-4.261 4.261 1.908 4.261 4.261z" fill="#e84e57"/><path d="m133.507 191.739c0 2.353-1.908 4.261-4.261 4.261s-4.261-1.908-4.261-4.261 1.908-4.261 4.261-4.261 4.261 1.908 4.261 4.261z" fill="#ffbf1a"/><path d="m196 191.739c0 2.353-1.908 4.261-4.261 4.261s-4.261-1.908-4.261-4.261 1.908-4.261 4.261-4.261 4.261 1.908 4.261 4.261z" fill="#e84e57"/><path d="m196 191.739c0 2.353-1.908 4.261-4.261 4.261s-4.261-1.908-4.261-4.261 1.908-4.261 4.261-4.261 4.261 1.908 4.261 4.261z" fill="#ffbf1a"/></g></svg>

<svg width="196" height="196" viewBox="0 0 196 196" fill="none" xmlns="http://www.w3.org/2000/svg">
<g opacity="0.8">
<path d="M8.5217 4.26087C8.5217 6.61408 6.61405 8.52174 4.26085 8.52174C1.90765 8.52174 0 6.61408 0 4.26087C0 1.90766 1.90765 0 4.26085 0C6.61405 0 8.5217 1.90766 8.5217 4.26087Z" fill="#E84E57"/>
<path d="M8.5217 4.26087C8.5217 6.61408 6.61405 8.52174 4.26085 8.52174C1.90765 8.52174 0 6.61408 0 4.26087C0 1.90766 1.90765 0 4.26085 0C6.61405 0 8.5217 1.90766 8.5217 4.26087Z" fill="#FFBF1A"/>
<path d="M71.0148 4.26087C71.0148 6.61408 69.1071 8.52174 66.7539 8.52174C64.4007 8.52174 62.4931 6.61408 62.4931 4.26087C62.4931 1.90766 64.4007 0 66.7539 0C69.1071 0 71.0148 1.90766 71.0148 4.26087Z" fill="#E84E57"/>
<path d="M71.0148 4.26087C71.0148 6.61408 69.1071 8.52174 66.7539 8.52174C64.4007 8.52174 62.4931 6.61408 62.4931 4.26087C62.4931 1.90766 64.4007 0 66.7539 0C69.1071 0 71.0148 1.90766 71.0148 4.26087Z" fill="#FFBF1A"/>
<path d="M133.507 4.26087C133.507 6.61408 131.599 8.52174 129.246 8.52174C126.893 8.52174 124.985 6.61408 124.985 4.26087C124.985 1.90766 126.893 0 129.246 0C131.599 0 133.507 1.90766 133.507 4.26087Z" fill="#E84E57"/>
<path d="M133.507 4.26087C133.507 6.61408 131.599 8.52174 129.246 8.52174C126.893 8.52174 124.985 6.61408 124.985 4.26087C124.985 1.90766 126.893 0 129.246 0C131.599 0 133.507 1.90766 133.507 4.26087Z" fill="#FFBF1A"/>
<path d="M196 4.26087C196 6.61408 194.092 8.52174 191.739 8.52174C189.386 8.52174 187.478 6.61408 187.478 4.26087C187.478 1.90766 189.386 0 191.739 0C194.092 0 196 1.90766 196 4.26087Z" fill="#E84E57"/>
<path d="M196 4.26087C196 6.61408 194.092 8.52174 191.739 8.52174C189.386 8.52174 187.478 6.61408 187.478 4.26087C187.478 1.90766 189.386 0 191.739 0C194.092 0 196 1.90766 196 4.26087Z" fill="#FFBF1A"/>
<path d="M8.5217 66.7536C8.5217 69.1068 6.61405 71.0145 4.26085 71.0145C1.90765 71.0145 0 69.1068 0 66.7536C0 64.4004 1.90765 62.4927 4.26085 62.4927C6.61405 62.4927 8.5217 64.4004 8.5217 66.7536Z" fill="#E84E57"/>
<path d="M8.5217 66.7536C8.5217 69.1068 6.61405 71.0145 4.26085 71.0145C1.90765 71.0145 0 69.1068 0 66.7536C0 64.4004 1.90765 62.4927 4.26085 62.4927C6.61405 62.4927 8.5217 64.4004 8.5217 66.7536Z" fill="#FFBF1A"/>
<path d="M71.0148 66.7536C71.0148 69.1068 69.1071 71.0145 66.7539 71.0145C64.4007 71.0145 62.4931 69.1068 62.4931 66.7536C62.4931 64.4004 64.4007 62.4927 66.7539 62.4927C69.1071 62.4927 71.0148 64.4004 71.0148 66.7536Z" fill="#E84E57"/>
<path d="M71.0148 66.7536C71.0148 69.1068 69.1071 71.0145 66.7539 71.0145C64.4007 71.0145 62.4931 69.1068 62.4931 66.7536C62.4931 64.4004 64.4007 62.4927 66.7539 62.4927C69.1071 62.4927 71.0148 64.4004 71.0148 66.7536Z" fill="#FFBF1A"/>
<path d="M133.507 66.7536C133.507 69.1068 131.599 71.0145 129.246 71.0145C126.893 71.0145 124.985 69.1068 124.985 66.7536C124.985 64.4004 126.893 62.4927 129.246 62.4927C131.599 62.4927 133.507 64.4004 133.507 66.7536Z" fill="#E84E57"/>
<path d="M133.507 66.7536C133.507 69.1068 131.599 71.0145 129.246 71.0145C126.893 71.0145 124.985 69.1068 124.985 66.7536C124.985 64.4004 126.893 62.4927 129.246 62.4927C131.599 62.4927 133.507 64.4004 133.507 66.7536Z" fill="#FFBF1A"/>
<path d="M196 66.7536C196 69.1068 194.092 71.0145 191.739 71.0145C189.386 71.0145 187.478 69.1068 187.478 66.7536C187.478 64.4004 189.386 62.4927 191.739 62.4927C194.092 62.4927 196 64.4004 196 66.7536Z" fill="#E84E57"/>
<path d="M196 66.7536C196 69.1068 194.092 71.0145 191.739 71.0145C189.386 71.0145 187.478 69.1068 187.478 66.7536C187.478 64.4004 189.386 62.4927 191.739 62.4927C194.092 62.4927 196 64.4004 196 66.7536Z" fill="#FFBF1A"/>
<path d="M8.5217 129.246C8.5217 131.6 6.61405 133.507 4.26085 133.507C1.90765 133.507 0 131.6 0 129.246C0 126.893 1.90765 124.986 4.26085 124.986C6.61405 124.986 8.5217 126.893 8.5217 129.246Z" fill="#E84E57"/>
<path d="M8.5217 129.246C8.5217 131.6 6.61405 133.507 4.26085 133.507C1.90765 133.507 0 131.6 0 129.246C0 126.893 1.90765 124.986 4.26085 124.986C6.61405 124.986 8.5217 126.893 8.5217 129.246Z" fill="#FFBF1A"/>
<path d="M71.0148 129.246C71.0148 131.6 69.1071 133.507 66.7539 133.507C64.4007 133.507 62.4931 131.6 62.4931 129.246C62.4931 126.893 64.4007 124.986 66.7539 124.986C69.1071 124.986 71.0148 126.893 71.0148 129.246Z" fill="#E84E57"/>
<path d="M71.0148 129.246C71.0148 131.6 69.1071 133.507 66.7539 133.507C64.4007 133.507 62.4931 131.6 62.4931 129.246C62.4931 126.893 64.4007 124.986 66.7539 124.986C69.1071 124.986 71.0148 126.893 71.0148 129.246Z" fill="#FFBF1A"/>
<path d="M133.507 129.246C133.507 131.6 131.599 133.507 129.246 133.507C126.893 133.507 124.985 131.6 124.985 129.246C124.985 126.893 126.893 124.986 129.246 124.986C131.599 124.986 133.507 126.893 133.507 129.246Z" fill="#E84E57"/>
<path d="M133.507 129.246C133.507 131.6 131.599 133.507 129.246 133.507C126.893 133.507 124.985 131.6 124.985 129.246C124.985 126.893 126.893 124.986 129.246 124.986C131.599 124.986 133.507 126.893 133.507 129.246Z" fill="#FFBF1A"/>
<path d="M196 129.246C196 131.6 194.092 133.507 191.739 133.507C189.386 133.507 187.478 131.6 187.478 129.246C187.478 126.893 189.386 124.986 191.739 124.986C194.092 124.986 196 126.893 196 129.246Z" fill="#E84E57"/>
<path d="M196 129.246C196 131.6 194.092 133.507 191.739 133.507C189.386 133.507 187.478 131.6 187.478 129.246C187.478 126.893 189.386 124.986 191.739 124.986C194.092 124.986 196 126.893 196 129.246Z" fill="#FFBF1A"/>
<path d="M8.5217 191.739C8.5217 194.092 6.61405 196 4.26085 196C1.90765 196 0 194.092 0 191.739C0 189.386 1.90765 187.478 4.26085 187.478C6.61405 187.478 8.5217 189.386 8.5217 191.739Z" fill="#E84E57"/>
<path d="M8.5217 191.739C8.5217 194.092 6.61405 196 4.26085 196C1.90765 196 0 194.092 0 191.739C0 189.386 1.90765 187.478 4.26085 187.478C6.61405 187.478 8.5217 189.386 8.5217 191.739Z" fill="#FFBF1A"/>
<path d="M71.0148 191.739C71.0148 194.092 69.1071 196 66.7539 196C64.4007 196 62.4931 194.092 62.4931 191.739C62.4931 189.386 64.4007 187.478 66.7539 187.478C69.1071 187.478 71.0148 189.386 71.0148 191.739Z" fill="#E84E57"/>
<path d="M71.0148 191.739C71.0148 194.092 69.1071 196 66.7539 196C64.4007 196 62.4931 194.092 62.4931 191.739C62.4931 189.386 64.4007 187.478 66.7539 187.478C69.1071 187.478 71.0148 189.386 71.0148 191.739Z" fill="#FFBF1A"/>
<path d="M133.507 191.739C133.507 194.092 131.599 196 129.246 196C126.893 196 124.985 194.092 124.985 191.739C124.985 189.386 126.893 187.478 129.246 187.478C131.599 187.478 133.507 189.386 133.507 191.739Z" fill="#E84E57"/>
<path d="M133.507 191.739C133.507 194.092 131.599 196 129.246 196C126.893 196 124.985 194.092 124.985 191.739C124.985 189.386 126.893 187.478 129.246 187.478C131.599 187.478 133.507 189.386 133.507 191.739Z" fill="#FFBF1A"/>
<path d="M196 191.739C196 194.092 194.092 196 191.739 196C189.386 196 187.478 194.092 187.478 191.739C187.478 189.386 189.386 187.478 191.739 187.478C194.092 187.478 196 189.386 196 191.739Z" fill="#E84E57"/>
<path d="M196 191.739C196 194.092 194.092 196 191.739 196C189.386 196 187.478 194.092 187.478 191.739C187.478 189.386 189.386 187.478 191.739 187.478C194.092 187.478 196 189.386 196 191.739Z" fill="#FFBF1A"/>
</g>
</svg>
